COLOR/mimes 16/16/video-x-generic.svg

<svg height="16" viewBox="0 0 4.233125 4.233125" width="16" xmlns="http://www.w3.org/2000/svg" xmlns:xlink="http://www.w3.org/1999/xlink"><linearGradient id="a" gradientTransform="matrix(.00953618 0 0 .00953591 -.240516 -1.0755)" gradientUnits="userSpaceOnUse" x1="459.03448" x2="35.310345" y1="419.23337" y2="207.36522"><stop offset="0" stop-color="#331d3b"/><stop offset="1" stop-color="#281d2c"/></linearGradient><path d="m4.1008423 1.2158036c0-.1879709-.0041-.33691389-.02532-.46351389-.02124-.126599-.06278-.23724201-.144688-.31934401-.08191-.0821-.192105-.123623-.318829-.144688-.126721-.02106-.276084-.02468-.464548-.02376h-1.030892-1.031411c-.18816613-.000794-.33744912.0027-.46403014.02376-.126724.02106-.23692.06258-.318829.144688-.08191.0821-.123435.19274201-.144688.31934401-.02125.126603-.02532.27554299-.02532.46351389v1.536783c0 .187972.004.336629.02532.462999.02127.126366.06274.237012.144688.318828.08195.08181.192293.122943.318829.14417.12653302.02122.27568501.02532.46403014.02532h1.031411 1.031411c.188345 0 .337497-.0041.46403-.02532.126536-.02122.236878-.06236.318829-.14417.08195-.08182.123422-.192462.144688-.318828.02127-.12637.02532-.275027.02532-.462999z" fill="url(#a)"/><g fill="#fff"><path d="m1.5883453 1.0928107v1.7869479s.846842-.366309 1.587419-.8940361c0-.000117-.000084-.000133-.000132-.00053-.000079-.000113-.000135-.000198-.000198-.000529-.000135-.000114-.000135-.000198-.00053-.000529-.000079-.000114-.000134-.000198-.000134-.000529-.781195-.544541-1.586361-.8906728-1.586361-.8906728z" opacity=".6"/><g enable-background="new" transform="matrix(.26457031 0 0 .26457031 -.0000004857 .0000006632)"><path d="m.5 7.5v2.904297c0 .71048.01511963 1.272357.09570312 1.75.08039451.477627.23713504.895837.54687498 1.205078.3097476.309218.7268083.46469 1.2050781.544922.4782586.080205 1.0420157.095703 1.7539063.095703h3.8984375 3.898438c.71189 0 1.275647-.015498 1.753906-.095703.47827-.080206.895327-.235704 1.205078-.544922.309747-.309256.466495-.727451.546875-1.205078.080394-.477643.095703-1.03952.095703-1.75v-2.904297z" opacity=".04" stroke-width="1.198463"/><path d="m8 14h3.898438c.71189 0 1.275647-.015498 1.753906-.095703.47827-.080206.895327-.235704 1.205078-.544922.309747-.309256.466495-.727451.546875-1.205078.080394-.477643.095703-1.03952.095703-1.75v-5.8085939c0-.7104761-.015498-1.2734414-.095703-1.7519531-.080281-.478508-.237286-.8967092-.546875-1.2070312-.309596-.3103145-.726098-.4672554-1.205078-.546875-.478969-.0796008-1.04352-.09332114-1.75586-.0898438h-3.896484z" opacity=".04" stroke-width="1.171171"/></g><path d="m4.1015625 1c-.7112141-.00300109-1.2754663.010243-1.7539063.0898438-.4789804.0796007-.8954855.2365302-1.2050781.546875-.30959631.3103144-.46654472.7285119-.54687498 1.2070312-.08031891.4785231-.09570312 1.041477-.09570312 1.7519531v.5c0-.7104761.01538421-1.2734299.09570312-1.7519531.08033026-.4785193.23727867-.8967168.54687498-1.2070312.3095926-.3103448.7260977-.4672743 1.2050781-.546875.47844-.0796008 1.0426922-.0928449 1.7539063-.0898438h3.8984375 3.896484c.71234-.0034773 1.276891.010243 1.75586.0898438.47898.0796196.895482.2365605 1.205078.546875.309589.310322.466594.7285232.546875 1.2070312.080205.4785119.095703 1.041477.095703 1.7519531v-.5c0-.7104761-.015498-1.2734414-.095703-1.7519531-.080281-.478508-.237286-.8967092-.546875-1.2070312-.309596-.3103145-.726098-.4672554-1.205078-.546875-.478969-.0796008-1.04352-.09332114-1.75586-.0898438h-3.896484z" opacity=".3" stroke-width="3.779714" transform="scale(.26457031)"/></g><path d="m3.1479733 3.7038559c.1881662.000794.3374505-.00271.4640316-.02377.126724-.02106.2369188-.062579.3188278-.1446869.08191-.0821.1234339-.1927426.1446869-.3193446.02125-.126603.02532-.2755439.02532-.4635148v-.1322851c0 .1879709-.00407.3369117-.02532.4635148-.021253.126602-.062777.2372446-.1446869.3193446-.081909.082108-.1921038.1236269-.3188278.1446869-.1265811.02106-.2758654.024564-.4640316.02377h-1.0314108-1.030894c-.18846401.00092-.33782744-.00271-.46454842-.02377-.12672389-.021065-.23691795-.062587-.3188279-.1446869-.081908-.082102-.1234469-.1927456-.1446868-.3193446-.02122-.1266001-.02532-.2755439-.02532-.4635148v.1322851c0 .1879709.0041.3369148.02532.4635148.02124.126599.062779.2372426.1446868.3193446.08191.0821.19210401.1236219.3188279.1446869.12672098.02106.27608441.02469.46454842.02377h1.030894z" opacity=".2"/></svg>

<?xml version="1.0" encoding="UTF-8" standalone="no"?>
<svg
   xmlns:dc="http://purl.org/dc/elements/1.1/"
   xmlns:cc="http://creativecommons.org/ns#"
   xmlns:rdf="http://www.w3.org/1999/02/22-rdf-syntax-ns#"
   xmlns:svg="http://www.w3.org/2000/svg"
   xmlns="http://www.w3.org/2000/svg"
   xmlns:sodipodi="http://sodipodi.sourceforge.net/DTD/sodipodi-0.dtd"
   xmlns:inkscape="http://www.inkscape.org/namespaces/inkscape"
   height="16"
   viewBox="0 0 4.233125 4.233125"
   width="16"
   version="1.1"
   id="svg37"
   sodipodi:docname="video-x-generic.svg"
   inkscape:version="0.92.4 (5da689c313, 2019-01-14)">
  <metadata
     id="metadata43">
    <rdf:RDF>
      <cc:Work
         rdf:about="">
        <dc:format>image/svg+xml</dc:format>
        <dc:type
           rdf:resource="http://purl.org/dc/dcmitype/StillImage" />
      </cc:Work>
    </rdf:RDF>
  </metadata>
  <defs
     id="defs41" />
  <sodipodi:namedview
     pagecolor="#ffffff"
     bordercolor="#666666"
     borderopacity="1"
     objecttolerance="10"
     gridtolerance="10"
     guidetolerance="10"
     inkscape:pageopacity="0"
     inkscape:pageshadow="2"
     inkscape:window-width="1920"
     inkscape:window-height="1016"
     id="namedview39"
     showgrid="false"
     inkscape:zoom="64.534685"
     inkscape:cx="8.0000065"
     inkscape:cy="3.5418066"
     inkscape:window-x="0"
     inkscape:window-y="27"
     inkscape:window-maximized="1"
     inkscape:current-layer="svg37" />
  <linearGradient
     id="a"
     gradientTransform="matrix(0 1 -1 0 572 -84)"
     gradientUnits="userSpaceOnUse"
     x1="329"
     x2="329"
     y1="239"
     y2="250">
    <stop
       offset="0"
       stop-color="#fff"
       id="stop2" />
    <stop
       offset=".125"
       stop-color="#fff"
       stop-opacity=".098039"
       id="stop4" />
    <stop
       offset=".92500001"
       stop-color="#fff"
       stop-opacity=".098039"
       id="stop6" />
    <stop
       offset="1"
       stop-color="#fff"
       stop-opacity=".498039"
       id="stop8" />
  </linearGradient>
  <clipPath
     id="b">
    <path
       d="m325.09646 237c-2.80769 0-3.10979.28839-3.09603 3.10176v3.89824 3.89824c-.0138 2.81337.28834 3.10176 3.09603 3.10176h5.8075c2.8077 0 3.09604-.28835 3.09604-3.10176v-3.89824-3.89824c0-2.8134-.28835-3.10176-3.09604-3.10176z"
       id="path11" />
  </clipPath>
  <linearGradient
     id="c"
     gradientTransform="matrix(.00953618 0 0 .00953591 -.240516 -1.0755)"
     gradientUnits="userSpaceOnUse"
     x1="459.03448"
     x2="35.310345"
     y1="419.23337"
     y2="207.36522">
    <stop
       offset="0"
       stop-color="#331d3b"
       id="stop14" />
    <stop
       offset="1"
       stop-color="#281d2c"
       id="stop16" />
  </linearGradient>
  <path
     d="m4.1008423 1.2158036c0-.1879709-.0041-.33691389-.02532-.46351389-.02124-.126599-.06278-.23724201-.144688-.31934401-.08191-.0821-.192105-.123623-.318829-.144688-.126721-.02106-.276084-.02468-.464548-.02376h-1.030892-1.031411c-.18816613-.000794-.33744912.0027-.46403014.02376-.126724.02106-.23692.06258-.318829.144688-.08191.0821-.123435.19274201-.144688.31934401-.02125.126603-.02532.27554299-.02532.46351389v1.536783c0 .187972.004.336629.02532.462999.02127.126366.06274.237012.144688.318828.08195.08181.192293.122943.318829.14417.12653302.02122.27568501.02532.46403014.02532h1.031411 1.031411c.188345 0 .337497-.0041.46403-.02532.126536-.02122.236878-.06236.318829-.14417.08195-.08182.123422-.192462.144688-.318828.02127-.12637.02532-.275027.02532-.462999z"
     fill="url(#c)"
     id="path21" />
  <path
     d="m1.5883453 1.0928107v1.7869479s.846842-.366309 1.587419-.8940361c0-.000117-.000084-.000133-.000132-.00053-.000079-.000113-.000135-.000198-.000198-.000529-.000135-.000114-.000135-.000198-.00053-.000529-.000079-.000114-.000134-.000198-.000134-.000529-.781195-.544541-1.586361-.8906728-1.586361-.8906728z"
     fill="#fff"
     opacity=".6"
     id="path23" />
  <g
     enable-background="new"
     fill="#fff"
     transform="matrix(0 .26457031 .26457031 0 -62.438591 -84.794871)"
     id="g29">
    <path
       style="opacity:0.03999999;stroke-width:1.19846308"
       d="M 0.5 7.5 L 0.5 10.404297 C 0.5 11.114777 0.51511963 11.676654 0.59570312 12.154297 C 0.67609763 12.631924 0.83283816 13.050134 1.1425781 13.359375 C 1.4523257 13.668593 1.8693864 13.824065 2.3476562 13.904297 C 2.8259148 13.984502 3.3896719 14 4.1015625 14 L 8 14 L 11.898438 14 C 12.610328 14 13.174085 13.984502 13.652344 13.904297 C 14.130614 13.824091 14.547671 13.668593 14.857422 13.359375 C 15.167169 13.050119 15.323917 12.631924 15.404297 12.154297 C 15.484691 11.676654 15.5 11.114777 15.5 10.404297 L 15.5 7.5 L 0.5 7.5 z "
       id="path25"
       transform="matrix(0,1,1,0,320.50033,235.99999)" />
    <path
       style="opacity:0.03999999;stroke-width:1.17117095"
       d="M 8 14 L 11.898438 14 C 12.610328 14 13.174085 13.984502 13.652344 13.904297 C 14.130614 13.824091 14.547671 13.668593 14.857422 13.359375 C 15.167169 13.050119 15.323917 12.631924 15.404297 12.154297 C 15.484691 11.676654 15.5 11.114777 15.5 10.404297 L 15.5 4.5957031 C 15.5 3.885227 15.484502 3.3222617 15.404297 2.84375 C 15.324016 2.365242 15.167011 1.9470408 14.857422 1.6367188 C 14.547826 1.3264043 14.131324 1.1694634 13.652344 1.0898438 C 13.173375 1.010243 12.608824 0.99652266 11.896484 1 L 8 1 L 8 14 z "
       id="path881"
       transform="matrix(0,1,1,0,320.50033,235.99999)" />
  </g>
  <g
     fill="none"
     id="g35" />
  <path
     style="fill:#ffffff;stroke-width:3.77971363;fill-opacity:1;opacity:0.3"
     d="M 4.1015625 1 C 3.3903484 0.99699891 2.8260962 1.010243 2.3476562 1.0898438 C 1.8686758 1.1694445 1.4521707 1.326374 1.1425781 1.6367188 C 0.83298179 1.9470332 0.67603338 2.3652307 0.59570312 2.84375 C 0.51538421 3.3222731 0.5 3.885227 0.5 4.5957031 L 0.5 5.0957031 C 0.5 4.385227 0.51538421 3.8222732 0.59570312 3.34375 C 0.67603338 2.8652307 0.83298179 2.4470332 1.1425781 2.1367188 C 1.4521707 1.826374 1.8686758 1.6694445 2.3476562 1.5898438 C 2.8260962 1.510243 3.3903484 1.4969989 4.1015625 1.5 L 8 1.5 L 11.896484 1.5 C 12.608824 1.4965227 13.173375 1.510243 13.652344 1.5898438 C 14.131324 1.6694634 14.547826 1.8264043 14.857422 2.1367188 C 15.167011 2.4470408 15.324016 2.865242 15.404297 3.34375 C 15.484502 3.8222619 15.5 4.385227 15.5 5.0957031 L 15.5 4.5957031 C 15.5 3.885227 15.484502 3.3222617 15.404297 2.84375 C 15.324016 2.365242 15.167011 1.9470408 14.857422 1.6367188 C 14.547826 1.3264043 14.131324 1.1694634 13.652344 1.0898438 C 13.173375 1.010243 12.608824 0.99652266 11.896484 1 L 8 1 L 4.1015625 1 z "
     transform="scale(0.26457031)"
     id="path45" />
  <path
     id="path862"
     d="m 3.1479733,3.7038559 c 0.1881662,7.94e-4 0.3374505,-0.00271 0.4640316,-0.02377 0.126724,-0.02106 0.2369188,-0.062579 0.3188278,-0.1446869 0.08191,-0.0821 0.1234339,-0.1927426 0.1446869,-0.3193446 0.02125,-0.126603 0.02532,-0.2755439 0.02532,-0.4635148 V 2.6202545 c 0,0.1879709 -0.00407,0.3369117 -0.02532,0.4635148 -0.021253,0.126602 -0.062777,0.2372446 -0.1446869,0.3193446 -0.081909,0.082108 -0.1921038,0.1236269 -0.3188278,0.1446869 -0.1265811,0.02106 -0.2758654,0.024564 -0.4640316,0.02377 H 2.1165625 1.0856685 c -0.18846401,9.2e-4 -0.33782744,-0.00271 -0.46454842,-0.02377 -0.12672389,-0.021065 -0.23691795,-0.062587 -0.3188279,-0.1446869 -0.081908,-0.082102 -0.1234469,-0.1927456 -0.1446868,-0.3193446 -0.02122,-0.1266001 -0.02532,-0.2755439 -0.02532,-0.4635148 v 0.1322851 c 0,0.1879709 0.0041,0.3369148 0.02532,0.4635148 0.02124,0.126599 0.062779,0.2372426 0.1446868,0.3193446 0.08191,0.0821 0.19210401,0.1236219 0.3188279,0.1446869 0.12672098,0.02106 0.27608441,0.02469 0.46454842,0.02377 h 1.030894 z"
     style="opacity:0.2;fill:#000000;fill-opacity:1;stroke-width:1"
     inkscape:connector-curvature="0" />
</svg>
